Numix/16/status/indicator-keyboard-Ie-2.svg

<?xml version="1.0" encoding="UTF-8" standalone="no"?>
<svg
   xmlns:dc="http://purl.org/dc/elements/1.1/"
   xmlns:cc="http://creativecommons.org/ns#"
   xmlns:rdf="http://www.w3.org/1999/02/22-rdf-syntax-ns#"
   xmlns:svg="http://www.w3.org/2000/svg"
   xmlns="http://www.w3.org/2000/svg"
   xmlns:sodipodi="http://sodipodi.sourceforge.net/DTD/sodipodi-0.dtd"
   xmlns:inkscape="http://www.inkscape.org/namespaces/inkscape"
   viewBox="0 0 16 16"
   id="svg2"
   version="1.1"
   inkscape:version="0.91 r13725"
   sodipodi:docname="indicator-keyboard-Ie-2.svg">
  <metadata
     id="metadata14">
    <rdf:RDF>
      <cc:Work
         rdf:about="">
        <dc:format>image/svg+xml</dc:format>
        <dc:type
           rdf:resource="http://purl.org/dc/dcmitype/StillImage" />
      </cc:Work>
    </rdf:RDF>
  </metadata>
  <defs
     id="defs12" />
  <sodipodi:namedview
     pagecolor="#ffffff"
     bordercolor="#666666"
     borderopacity="1"
     objecttolerance="10"
     gridtolerance="10"
     guidetolerance="10"
     inkscape:pageopacity="0"
     inkscape:pageshadow="2"
     inkscape:window-width="640"
     inkscape:window-height="480"
     id="namedview10"
     showgrid="false"
     inkscape:zoom="14.75"
     inkscape:cx="8"
     inkscape:cy="8"
     inkscape:window-x="65"
     inkscape:window-y="24"
     inkscape:window-maximized="0"
     inkscape:current-layer="svg2" />
  <path
     style="fill:#ececec;fill-opacity:1"
     d="M 1.5996094 0 C 0.71320937 2.9605947e-16 0 0.71320937 0 1.5996094 L 0 14.400391 C 2.9605947e-16 15.286791 0.71320937 16 1.5996094 16 L 14.400391 16 C 15.286791 16 16 15.286791 16 14.400391 L 16 1.5996094 C 16 0.71320937 15.286791 0 14.400391 0 L 1.5996094 0 z M 3.4160156 4.859375 L 4.0273438 4.859375 L 4.0273438 11.095703 L 3.4160156 11.095703 L 3.4160156 4.859375 z M 7.3671875 6.3359375 C 7.9371875 6.3359375 8.3886094 6.5205781 8.7246094 6.8925781 C 9.0666094 7.2645781 9.2382812 7.8373281 9.2382812 8.6113281 C 9.2382812 8.6593281 9.2345156 8.7078594 9.2285156 8.7558594 C 9.2285156 8.8038594 9.2267031 8.848625 9.2207031 8.890625 L 5.953125 8.890625 C 5.971125 9.460625 6.1129531 9.8990779 6.3769531 10.205078 C 6.6409531 10.511078 7.0607188 10.664062 7.6367188 10.664062 C 7.9547187 10.664062 8.2065781 10.634219 8.3925781 10.574219 C 8.5785781 10.514219 8.712875 10.463875 8.796875 10.421875 L 8.90625 10.925781 C 8.82225 10.973781 8.6617344 11.029703 8.4277344 11.095703 C 8.1997344 11.161703 7.9311406 11.195312 7.6191406 11.195312 C 7.2111406 11.195312 6.8622187 11.135625 6.5742188 11.015625 C 6.2862187 10.895625 6.0492813 10.727719 5.8632812 10.511719 C 5.6772812 10.295719 5.5429844 10.040094 5.4589844 9.7460938 C 5.3749844 9.4460938 5.3320313 9.119625 5.3320312 8.765625 C 5.3320312 8.357625 5.3899063 8.003125 5.5039062 7.703125 C 5.6239062 7.397125 5.7768906 7.1415 5.9628906 6.9375 C 6.1548906 6.7335 6.3713281 6.5842813 6.6113281 6.4882812 C 6.8573281 6.3862812 7.1091875 6.3359375 7.3671875 6.3359375 z M 7.375 6.8574219 C 7.165 6.8574219 6.9765937 6.8984219 6.8085938 6.9824219 C 6.6465937 7.0664219 6.5029531 7.1802188 6.3769531 7.3242188 C 6.2569531 7.4622188 6.1598906 7.6245469 6.0878906 7.8105469 C 6.0218906 7.9965469 5.9827031 8.1924844 5.9707031 8.3964844 L 8.6347656 8.3964844 C 8.6227656 7.9104844 8.5089687 7.5317188 8.2929688 7.2617188 C 8.0769687 6.9917187 7.771 6.8574219 7.375 6.8574219 z M 11.257812 8.7539062 C 11.651712 8.7539062 11.947584 8.851875 12.146484 9.046875 C 12.345384 9.237975 12.445313 9.5044563 12.445312 9.8476562 C 12.445312 9.9997563 12.417881 10.14475 12.363281 10.28125 C 12.308681 10.41385 12.234225 10.543169 12.140625 10.667969 C 12.050925 10.792769 11.947078 10.912297 11.830078 11.029297 C 11.713078 11.146297 11.593556 11.263859 11.472656 11.380859 C 11.371256 11.478359 11.273281 11.578288 11.175781 11.679688 C 11.082181 11.777188 10.995969 11.877116 10.917969 11.978516 C 10.843869 12.076016 10.783128 12.172031 10.736328 12.269531 C 10.693428 12.363131 10.671875 12.457181 10.671875 12.550781 L 10.671875 12.5625 L 12.583984 12.5625 L 12.583984 12.896484 L 10.25 12.896484 C 10.25 12.888684 10.248074 12.874969 10.244141 12.855469 L 10.244141 12.755859 C 10.244141 12.572559 10.27745 12.402094 10.34375 12.246094 C 10.41005 12.086194 10.494303 11.937275 10.595703 11.796875 C 10.701003 11.656475 10.816606 11.525197 10.941406 11.404297 C 11.070106 11.283397 11.193547 11.165834 11.310547 11.052734 C 11.408047 10.959134 11.498184 10.869003 11.583984 10.783203 C 11.673684 10.693503 11.752059 10.603366 11.818359 10.509766 C 11.884659 10.416166 11.937562 10.316238 11.976562 10.210938 C 12.015562 10.105638 12.035156 9.9900344 12.035156 9.8652344 C 12.035156 9.5922344 11.9607 9.39825 11.8125 9.28125 C 11.6682 9.16035 11.485972 9.0996094 11.263672 9.0996094 C 11.138872 9.0996094 11.027187 9.1152844 10.929688 9.1464844 C 10.832188 9.1776844 10.745975 9.2149125 10.671875 9.2578125 C 10.601675 9.2968125 10.540934 9.3379594 10.490234 9.3808594 C 10.439534 9.4237594 10.402306 9.4570688 10.378906 9.4804688 L 10.179688 9.2167969 C 10.203087 9.1894969 10.244235 9.1503094 10.302734 9.0996094 C 10.365134 9.0450094 10.44155 8.9921062 10.53125 8.9414062 C 10.62485 8.8907063 10.732616 8.8476 10.853516 8.8125 C 10.974416 8.7735 11.109613 8.7539063 11.257812 8.7539062 z "
     id="path4" />
</svg>

<svg xmlns="http://www.w3.org/2000/svg" viewBox="0 0 16 16">
 <path d="m 1.6 0 c -0.886 0 -1.6 0.713 -1.6 1.6 l 0 12.801 c 0 0.886 0.713 1.6 1.6 1.6 l 12.801 0 c 0.886 0 1.6 -0.713 1.6 -1.6 l 0 -12.801 c 0 -0.886 -0.713 -1.6 -1.6 -1.6 l -12.801 0 z m 1.816 4.859 l 0.611 0 l 0 6.236 l -0.611 0 l 0 -6.236 z m 3.951 1.477 c 0.57 0 1.021 0.185 1.357 0.557 c 0.342 0.372 0.514 0.945 0.514 1.719 c 0 0.048 -0.004 0.097 -0.01 0.145 c 0 0.048 -0.002 0.093 -0.008 0.135 l -3.268 0 c 0.018 0.57 0.16 1.01 0.424 1.314 c 0.264 0.306 0.684 0.459 1.26 0.459 c 0.318 0 0.57 -0.03 0.756 -0.09 c 0.186 -0.06 0.32 -0.11 0.404 -0.152 l 0.109 0.504 c -0.084 0.048 -0.245 0.104 -0.479 0.17 c -0.228 0.066 -0.497 0.1 -0.809 0.1 c -0.408 0 -0.757 -0.06 -1.045 -0.18 c -0.288 -0.12 -0.525 -0.288 -0.711 -0.504 c -0.186 -0.216 -0.32 -0.472 -0.404 -0.766 c -0.084 -0.3 -0.127 -0.626 -0.127 -0.98 c 0 -0.408 0.058 -0.762 0.172 -1.063 c 0.12 -0.306 0.273 -0.562 0.459 -0.766 c 0.192 -0.204 0.408 -0.353 0.648 -0.449 c 0.246 -0.102 0.498 -0.152 0.756 -0.152 z m 0.008 0.521 c -0.21 0 -0.398 0.041 -0.566 0.125 c -0.162 0.084 -0.306 0.198 -0.432 0.342 c -0.12 0.138 -0.217 0.3 -0.289 0.486 c -0.066 0.186 -0.105 0.382 -0.117 0.586 l 2.664 0 c -0.012 -0.486 -0.126 -0.865 -0.342 -1.135 c -0.216 -0.27 -0.522 -0.404 -0.918 -0.404 z m 3.883 1.896 c 0.394 0 0.69 0.098 0.889 0.293 c 0.199 0.191 0.299 0.458 0.299 0.801 c 0 0.152 -0.027 0.297 -0.082 0.434 c -0.055 0.133 -0.129 0.262 -0.223 0.387 c -0.09 0.125 -0.194 0.244 -0.311 0.361 c -0.117 0.117 -0.237 0.235 -0.357 0.352 c -0.101 0.098 -0.199 0.197 -0.297 0.299 c -0.094 0.098 -0.18 0.197 -0.258 0.299 c -0.074 0.097 -0.135 0.194 -0.182 0.291 c -0.043 0.094 -0.064 0.188 -0.064 0.281 l 0 0.012 l 1.912 0 l 0 0.334 l -2.334 0 c 0 -0.008 -0.002 -0.022 -0.006 -0.041 l 0 -0.1 c 0 -0.183 0.033 -0.354 0.1 -0.51 c 0.066 -0.16 0.151 -0.309 0.252 -0.449 c 0.105 -0.14 0.221 -0.272 0.346 -0.393 c 0.129 -0.121 0.252 -0.238 0.369 -0.352 c 0.098 -0.094 0.188 -0.184 0.273 -0.27 c 0.09 -0.09 0.168 -0.18 0.234 -0.273 c 0.066 -0.094 0.119 -0.194 0.158 -0.299 c 0.039 -0.105 0.059 -0.221 0.059 -0.346 c 0 -0.273 -0.074 -0.467 -0.223 -0.584 c -0.144 -0.121 -0.327 -0.182 -0.549 -0.182 c -0.125 0 -0.236 0.016 -0.334 0.047 c -0.098 0.031 -0.184 0.068 -0.258 0.111 c -0.07 0.039 -0.131 0.08 -0.182 0.123 c -0.051 0.043 -0.088 0.076 -0.111 0.1 l -0.199 -0.264 c 0.023 -0.027 0.065 -0.066 0.123 -0.117 c 0.062 -0.055 0.139 -0.108 0.229 -0.158 c 0.094 -0.051 0.201 -0.094 0.322 -0.129 c 0.121 -0.039 0.256 -0.059 0.404 -0.059 z" style="fill:#ececec;fill-opacity:1"/>
</svg>
